teeny/outline/play-circle.svg

<svg width="15" height="15" viewBox="0 0 15 15" fill="none" xmlns="http://www.w3.org/2000/svg">
<path d="M6.5 5.5L6.74807 5.06588C6.59332 4.97745 6.40319 4.97808 6.24904 5.06754C6.09488 5.15701 6 5.32176 6 5.5H6.5ZM6.5 9.5H6C6 9.67824 6.09488 9.84299 6.24904 9.93246C6.40319 10.0219 6.59332 10.0226 6.74807 9.93412L6.5 9.5ZM10 7.5L10.2481 7.93412C10.4039 7.8451 10.5 7.67943 10.5 7.5C10.5 7.32057 10.4039 7.1549 10.2481 7.06588L10 7.5ZM7.5 14C3.91015 14 1 11.0899 1 7.5H0C0 11.6421 3.35786 15 7.5 15V14ZM14 7.5C14 11.0899 11.0899 14 7.5 14V15C11.6421 15 15 11.6421 15 7.5H14ZM7.5 1C11.0899 1 14 3.91015 14 7.5H15C15 3.35786 11.6421 0 7.5 0V1ZM7.5 0C3.35786 0 0 3.35786 0 7.5H1C1 3.91015 3.91015 1 7.5 1V0ZM6 5.5V9.5H7V5.5H6ZM6.74807 9.93412L10.2481 7.93412L9.75193 7.06588L6.25193 9.06588L6.74807 9.93412ZM10.2481 7.06588L6.74807 5.06588L6.25193 5.93412L9.75193 7.93412L10.2481 7.06588Z" fill="black"/>
</svg>

<svg viewBox="0 0 15 15" xmlns="http://www.w3.org/2000/svg"><path d="M6.5 5.5l.24-.44c-.16-.09-.35-.09-.5 0 -.16.08-.25.25-.25.43h.5Zm0 4H6c0 .17.09.34.24.43 .15.08.34.09.49 0l-.25-.44Zm3.5-2l.24.43c.15-.09.25-.26.25-.44s-.1-.35-.26-.44l-.25.43ZM7.5 14C3.91 14 1 11.08 1 7.5H0C0 11.64 3.35 15 7.5 15v-1ZM14 7.5c0 3.58-2.92 6.5-6.5 6.5v1c4.14 0 7.5-3.36 7.5-7.5h-1ZM7.5 1C11.08 1 14 3.91 14 7.5h1C15 3.35 11.64 0 7.5 0v1Zm0-1C3.35 0 0 3.35 0 7.5h1C1 3.91 3.91 1 7.5 1V0ZM6 5.5v4h1v-4H6Zm.74 4.43l3.5-2 -.5-.87 -3.5 2 .49.86Zm3.5-2.87l-3.51-2 -.5.86 3.5 2 .49-.87Z"/></svg>
